; generated by Slic3r 0.9.11-dev on 2013-08-02 at 15:22:42

; layer_height = 0.18
; perimeters = 3
; top_solid_layers = 4
; bottom_solid_layers = 4
; fill_density = 0.5
; perimeter_speed = 60
; infill_speed = 60
; travel_speed = 250
; nozzle_diameter = 0.35
; filament_diameter = 1.75
; extrusion_multiplier = 2.0
; perimeters extrusion width = 0.35mm
; infill extrusion width = 0.57mm
; solid infill extrusion width = 0.57mm
; top infill extrusion width = 0.57mm

G21 ; set units to millimeters
M107
M140 S75
T0
M106
M104 S230
T1
M104 S0
G28 ; home all axes
G1 X15 Y15 F2000
G1 Z0 F350
T0
M109 S230 
;T1
;M109 S210
T0
G90 ; use absolute coordinates
G92 E0
M82 ; use absolute distances for extrusion
T0
G92 E0
G1 F6000.000 E-10.00000
G92 E0
G1 Z0.180 F15000.000
G1 X64.910 Y63.950
G1 F6000.000 E10.00000
G1 X66.300 Y62.560 F1800.000 E10.10298
G1 X67.140 Y61.850 E10.16059
G1 X68.080 Y61.270 E10.21845
G1 X69.840 Y60.370 E10.32200
G1 X70.880 Y59.940 E10.38096
G1 X71.970 Y59.680 E10.43966
G1 X73.910 Y59.380 E10.54249
G1 X74.990 Y59.300 E10.59922
G1 X124.990 Y59.300 E13.21846
G1 X126.060 Y59.380 E13.27467
G1 X128.010 Y59.680 E13.37802
G1 X129.110 Y59.940 E13.43723
G1 X130.150 Y60.370 E13.49618
G1 X131.910 Y61.270 E13.59974
G1 X132.850 Y61.850 E13.65760
G1 X133.690 Y62.560 E13.71521
G1 X135.060 Y63.930 E13.81671
G1 X135.760 Y64.760 E13.87358
G1 X136.330 Y65.680 E13.93028
G1 X137.250 Y67.460 E14.03524
G1 X137.690 Y68.500 E14.09440
G1 X137.950 Y69.590 E14.15310
G1 X138.260 Y71.530 E14.25601
G1 X138.350 Y72.640 E14.31435
G1 X138.350 Y133.650 E17.51034
G1 X138.210 Y135.030 E17.58301
G1 X137.810 Y136.350 E17.65526
G1 X137.160 Y137.570 E17.72767
G1 X136.290 Y138.640 E17.79991
G1 X135.220 Y139.510 E17.87216
G1 X134.000 Y140.160 E17.94457
G1 X132.680 Y140.560 E18.01682
G1 X131.300 Y140.700 E18.08948
G1 X68.700 Y140.700 E21.36877
G1 X67.320 Y140.560 E21.44143
G1 X66.000 Y140.160 E21.51368
G1 X64.780 Y139.510 E21.58610
G1 X63.710 Y138.640 E21.65834
G1 X62.840 Y137.570 E21.73058
G1 X62.190 Y136.350 E21.80299
G1 X61.790 Y135.030 E21.87525
G1 X61.650 Y133.650 E21.94791
G1 X61.650 Y72.640 E25.14390
G1 X61.730 Y71.560 E25.20063
G1 X62.030 Y69.620 E25.30346
G1 X62.290 Y68.530 E25.36217
G1 X62.720 Y67.490 E25.42112
G1 X63.620 Y65.730 E25.52467
G1 X64.200 Y64.790 E25.58253
G1 X64.876 Y63.990 E25.63740
G1 X65.160 Y64.200 F15000.000
G1 X66.550 Y62.810 F1800.000 E25.74037
G1 X67.350 Y62.130 E25.79537
G1 X68.240 Y61.580 E25.85018
G1 X70.000 Y60.680 E25.95373
G1 X70.990 Y60.280 E26.00967
G1 X72.030 Y60.030 E26.06570
G1 X73.970 Y59.730 E26.16853
G1 X74.990 Y59.650 E26.22213
G1 X124.990 Y59.650 E28.84137
G1 X126.010 Y59.730 E28.89496
G1 X127.960 Y60.030 E28.99831
G1 X129.000 Y60.270 E29.05423
G1 X129.990 Y60.680 E29.11036
G1 X131.750 Y61.580 E29.21391
G1 X132.640 Y62.130 E29.26872
G1 X133.440 Y62.810 E29.32372
G1 X134.810 Y64.180 E29.42521
G1 X135.480 Y64.970 E29.47948
G1 X136.020 Y65.840 E29.53312
G1 X136.940 Y67.620 E29.63808
G1 X137.350 Y68.610 E29.69421
G1 X137.610 Y69.640 E29.74986
G1 X137.920 Y71.580 E29.85278
G1 X138.000 Y72.640 E29.90846
G1 X138.000 Y133.650 E33.10445
G1 X137.870 Y134.960 E33.17341
G1 X137.490 Y136.210 E33.24185
G1 X136.870 Y137.370 E33.31076
G1 X136.040 Y138.390 E33.37964
G1 X135.020 Y139.220 E33.44853
G1 X133.860 Y139.840 E33.51743
G1 X132.610 Y140.220 E33.58587
G1 X131.300 Y140.350 E33.65483
G1 X68.700 Y140.350 E36.93412
G1 X67.390 Y140.220 E37.00308
G1 X66.140 Y139.840 E37.07152
G1 X64.980 Y139.220 E37.14042
G1 X63.960 Y138.390 E37.20930
G1 X63.130 Y137.370 E37.27819
G1 X62.510 Y136.210 E37.34709
G1 X62.130 Y134.960 E37.41553
G1 X62.000 Y133.650 E37.48449
G1 X62.000 Y72.640 E40.68049
G1 X62.080 Y71.620 E40.73408
G1 X62.380 Y69.680 E40.83692
G1 X62.630 Y68.640 E40.89295
G1 X63.030 Y67.650 E40.94888
G1 X63.930 Y65.890 E41.05243
G1 X64.480 Y65.000 E41.10724
G1 X65.126 Y64.240 E41.15949
G1 F6000.000 E26.15949
G92 E0
T1
G92 E0
G1 X48.610 Y63.450 F15000.000
G1 X50.000 Y62.060 F1800.000 E0.10298
G1 X50.750 Y61.420 E0.15462
G1 X51.600 Y60.900 E0.20682
G1 X53.360 Y60.000 E0.31038
G1 X54.290 Y59.610 E0.36320
G1 X55.280 Y59.370 E0.41657
G1 X57.220 Y59.070 E0.51940
G1 X58.190 Y59.000 E0.57035
G1 X108.190 Y59.000 E3.18958
G1 X109.160 Y59.070 E3.24053
G1 X111.110 Y59.370 E3.34388
G1 X112.090 Y59.610 E3.39673
G1 X113.030 Y60.000 E3.45004
G1 X114.790 Y60.900 E3.55360
G1 X115.640 Y61.420 E3.60580
G1 X116.390 Y62.060 E3.65744
G1 X117.760 Y63.430 E3.75894
G1 X118.400 Y64.170 E3.81019
G1 X118.910 Y65.000 E3.86122
G1 X119.830 Y66.780 E3.96618
G1 X120.220 Y67.720 E4.01950
G1 X120.460 Y68.700 E4.07235
G1 X120.770 Y70.640 E4.17526
G1 X120.850 Y71.640 E4.22782
G1 X120.850 Y132.650 E7.42381
G1 X120.730 Y133.890 E7.48907
G1 X120.370 Y135.080 E7.55420
G1 X119.780 Y136.180 E7.61959
G1 X118.990 Y137.140 E7.68471
G1 X118.030 Y137.930 E7.74984
G1 X116.930 Y138.520 E7.81523
G1 X115.740 Y138.880 E7.88036
G1 X114.500 Y139.000 E7.94562
G1 X51.900 Y139.000 E11.22490
G1 X50.660 Y138.880 E11.29016
G1 X49.470 Y138.520 E11.35529
G1 X48.370 Y137.930 E11.42068
G1 X47.410 Y137.140 E11.48581
G1 X46.620 Y136.180 E11.55093
G1 X46.030 Y135.080 E11.61632
G1 X45.670 Y133.890 E11.68145
G1 X45.550 Y132.650 E11.74671
G1 X45.550 Y71.640 E14.94270
G1 X45.620 Y70.670 E14.99365
G1 X45.920 Y68.730 E15.09648
G1 X46.160 Y67.740 E15.14984
G1 X46.550 Y66.810 E15.20267
G1 X47.450 Y65.050 E15.30623
G1 X47.970 Y64.200 E15.35842
G1 X48.576 Y63.490 E15.40732
G1 F6000.000 E0.40732
G92 E0
T0
G92 E0
G1 X77.269 Y70.305 F15000.000
G1 F6000.000 E15.00000
G1 X130.130 Y123.165 F1800.000 E20.98116
G1 X130.130 Y122.409 E21.04164
G1 X75.241 Y67.520 E27.25235
G1 X74.568 Y67.603 E27.30660
G1 X76.910 Y69.945 E27.57158
G1 X75.930 Y69.721 E27.65198
G1 X73.915 Y67.707 E27.87995
G1 X73.299 Y67.846 E27.93050
G1 X74.950 Y69.498 E28.11735
G1 X74.126 Y69.430 E28.18348
G1 X72.798 Y68.102 E28.33378
G1 X72.297 Y68.357 E28.37875
G1 X73.706 Y69.765 E28.53813
G1 X73.285 Y70.101 E28.58117
G1 X71.845 Y68.660 E28.74417
G1 X71.467 Y69.038 E28.78694
G1 X72.865 Y70.436 E28.94512
G1 X72.444 Y70.772 E28.98816
G1 X71.089 Y69.416 E29.14152
G1 X70.760 Y69.843 E29.18465
G1 X72.024 Y71.107 E29.32764
G1 X71.938 Y71.777 E29.38170
G1 X70.505 Y70.344 E29.54387
G1 X70.249 Y70.845 E29.58884
G1 X71.938 Y72.533 E29.77988
G1 X71.938 Y73.289 E29.84037
G1 X70.078 Y71.429 E30.05080
G1 X69.975 Y72.082 E30.10367
G1 X130.130 Y132.237 E36.91023
G1 X129.616 Y132.480 E36.95566
G1 X69.871 Y72.735 E43.71582
G1 X69.870 Y73.490 E43.77621
G1 X128.860 Y132.480 E50.45097
G1 X128.104 Y132.480 E50.51146
G1 X69.870 Y74.245 E57.10067
G1 X69.870 Y75.001 E57.16116
G1 X127.349 Y132.480 E63.66483
G1 X126.593 Y132.480 E63.72532
G1 X69.870 Y75.757 E70.14345
G1 X69.870 Y76.513 E70.20394
G1 X125.837 Y132.480 E76.53653
G1 X125.081 Y132.480 E76.59702
G1 X69.870 Y77.269 E82.84407
G1 X69.870 Y78.025 E82.90456
G1 X124.325 Y132.480 E89.06607
G1 X123.569 Y132.480 E89.12656
G1 X69.870 Y78.781 E95.20253
G1 X69.870 Y79.537 E95.26301
G1 X122.813 Y132.480 E101.25345
G1 X122.057 Y132.480 E101.31393
G1 X69.870 Y80.293 E107.21882
G1 X69.870 Y81.049 E107.27931
G1 X121.301 Y132.480 E113.09866
G1 X120.545 Y132.480 E113.15915
G1 X69.870 Y81.805 E118.89295
G1 X69.870 Y82.561 E118.95344
G1 X119.789 Y132.480 E124.60171
G1 X119.033 Y132.480 E124.66220
G1 X69.870 Y83.317 E130.22492
G1 X69.870 Y84.073 E130.28541
G1 X118.277 Y132.480 E135.76260
G1 X117.521 Y132.480 E135.82308
G1 X69.870 Y84.829 E141.21473
G1 X69.870 Y85.585 E141.27522
G1 X116.765 Y132.480 E146.58132
G1 X116.009 Y132.480 E146.64181
G1 X69.870 Y86.341 E151.86238
G1 X69.870 Y87.097 E151.92286
G1 X115.253 Y132.480 E157.05789
G1 X114.497 Y132.480 E157.11837
G1 X69.870 Y87.853 E162.16786
G1 X69.870 Y88.609 E162.22834
G1 X113.741 Y132.480 E167.19229
G1 X112.985 Y132.480 E167.25277
G1 X69.870 Y89.365 E172.13118
G1 X69.870 Y90.121 E172.19166
G1 X112.229 Y132.480 E176.98453
G1 X111.473 Y132.480 E177.04501
G1 X69.870 Y90.877 E181.75233
G1 X69.870 Y91.633 E181.81282
G1 X110.717 Y132.480 E186.43460
G1 X109.961 Y132.480 E186.49509
G1 X69.870 Y92.389 E191.03133
G1 X69.870 Y93.145 E191.09181
G1 X109.205 Y132.480 E195.54251
G1 X108.449 Y132.480 E195.60300
G1 X69.870 Y93.901 E199.96816
G1 X69.870 Y94.657 E200.02865
G1 X107.693 Y132.480 E204.30826
G1 X106.937 Y132.480 E204.36875
G1 X69.870 Y95.413 E208.56283
G1 X69.870 Y96.169 E208.62332
G1 X106.181 Y132.480 E212.73185
G1 X105.425 Y132.480 E212.79234
G1 X69.870 Y96.925 E216.81534
G1 X69.870 Y97.681 E216.87582
G1 X104.669 Y132.480 E220.81328
G1 X103.913 Y132.480 E220.87377
G1 X69.870 Y98.437 E224.72568
G1 X69.870 Y99.193 E224.78617
G1 X103.157 Y132.480 E228.55254
G1 X102.401 Y132.480 E228.61303
G1 X69.870 Y99.949 E232.29386
G1 X69.870 Y100.705 E232.35435
G1 X101.645 Y132.480 E235.94964
G1 X100.889 Y132.480 E236.01013
G1 X69.870 Y101.461 E239.51988
G1 X69.870 Y102.217 E239.58037
G1 X100.133 Y132.480 E243.00458
G1 X99.377 Y132.480 E243.06507
G1 X69.870 Y102.973 E246.40374
G1 X69.870 Y103.729 E246.46423
G1 X98.621 Y132.480 E249.71736
G1 X97.865 Y132.480 E249.77784
G1 X69.870 Y104.485 E252.94544
G1 X69.870 Y105.241 E253.00592
G1 X97.109 Y132.480 E256.08797
G1 X96.353 Y132.480 E256.14846
G1 X69.870 Y105.997 E259.14497
G1 X69.870 Y106.753 E259.20545
G1 X95.597 Y132.480 E262.11642
G1 X94.841 Y132.480 E262.17691
G1 X69.870 Y107.509 E265.00234
G1 X69.870 Y108.265 E265.06282
G1 X94.085 Y132.480 E267.80271
G1 X93.329 Y132.480 E267.86320
G1 X69.870 Y109.021 E270.51754
G1 X69.870 Y109.777 E270.57803
G1 X92.573 Y132.480 E273.14684
G1 X91.817 Y132.480 E273.20732
G1 X69.870 Y110.533 E275.69059
G1 X69.870 Y111.289 E275.75108
G1 X91.061 Y132.480 E278.14880
G1 X90.305 Y132.480 E278.20929
G1 X69.870 Y112.045 E280.52147
G1 X69.870 Y112.801 E280.58196
G1 X89.549 Y132.480 E282.80860
G1 X88.793 Y132.480 E282.86909
G1 X69.870 Y113.557 E285.01019
G1 X69.870 Y114.313 E285.07068
G1 X88.037 Y132.480 E287.12624
G1 X87.281 Y132.480 E287.18673
G1 X69.870 Y115.069 E289.15675
G1 X69.870 Y115.825 E289.21724
G1 X86.525 Y132.480 E291.10172
G1 X85.769 Y132.480 E291.16220
G1 X69.870 Y116.581 E292.96114
G1 X69.870 Y117.337 E293.02163
G1 X85.013 Y132.480 E294.73503
G1 X84.257 Y132.480 E294.79552
G1 X69.870 Y118.093 E296.42338
G1 X69.870 Y118.849 E296.48386
G1 X83.501 Y132.480 E298.02618
G1 X82.745 Y132.480 E298.08667
G1 X69.870 Y119.605 E299.54345
G1 X69.870 Y120.361 E299.60393
G1 X81.989 Y132.480 E300.97517
G1 X81.233 Y132.480 E301.03566
G1 X69.870 Y121.117 E302.32135
G1 X69.870 Y121.873 E302.38184
G1 X80.477 Y132.480 E303.58200
G1 X79.721 Y132.480 E303.64248
G1 X69.870 Y122.629 E304.75710
G1 X69.870 Y123.385 E304.81759
G1 X78.965 Y132.480 E305.84666
G1 X78.209 Y132.480 E305.90715
G1 X69.870 Y124.141 E306.85068
G1 X69.870 Y124.897 E306.91117
G1 X77.453 Y132.480 E307.76916
G1 X76.697 Y132.480 E307.82965
G1 X69.870 Y125.653 E308.60210
G1 X69.870 Y126.409 E308.66259
G1 X75.941 Y132.480 E309.34950
G1 X75.185 Y132.480 E309.40999
G1 X69.870 Y127.165 E310.01136
G1 X69.870 Y127.921 E310.07185
G1 X74.429 Y132.480 E310.58768
G1 X73.673 Y132.480 E310.64816
G1 X69.870 Y128.677 E311.07846
G1 X69.870 Y129.433 E311.13894
G1 X72.917 Y132.480 E311.48369
G1 X72.161 Y132.480 E311.54418
G1 X69.870 Y130.189 E311.80339
G1 X69.870 Y130.945 E311.86388
G1 X71.405 Y132.480 E312.03754
G1 X70.649 Y132.480 E312.09803
G1 X69.870 Y131.701 E312.18616
G1 X69.870 Y132.457 E312.24665
G1 X69.893 Y132.480 E312.24923
G1 X130.130 Y131.481 F15000.000
G1 X74.544 Y75.895 F1800.000 E318.53881
G1 X75.159 Y75.755 E318.58932
G1 X130.130 Y130.725 E324.80925
G1 X130.130 Y129.969 E324.86973
G1 X75.775 Y75.614 E331.02002
G1 X76.390 Y75.474 E331.07053
G1 X130.130 Y129.213 E337.15117
G1 X130.130 Y128.457 E337.21165
G1 X77.006 Y75.333 E343.22265
G1 X77.320 Y74.891 E343.26603
G1 X130.130 Y127.701 E349.24151
G1 X130.130 Y126.945 E349.30200
G1 X77.565 Y74.381 E355.24967
G1 X77.811 Y73.870 E355.29499
G1 X130.130 Y126.189 E361.21486
G1 X130.130 Y125.433 E361.27535
G1 X78.057 Y73.360 E367.16741
G1 X78.303 Y72.850 E367.21273
G1 X130.130 Y124.677 E373.07699
G1 X130.130 Y123.921 E373.13748
G1 X77.972 Y71.763 E379.03918
G1 X126.077 Y67.705 F15000.000
G1 X129.945 Y71.573 F1800.000 E379.47675
G1 X129.520 Y70.391 F15000.000
G1 X127.259 Y68.130 F1800.000 E379.73258
G1 X127.366 Y70.506 F15000.000
G1 X130.130 Y73.270 F1800.000 E380.04527
G1 X130.087 Y72.471 E380.10929
G1 X125.179 Y67.563 E380.66459
G1 X124.380 Y67.520 E380.72861
G1 X126.774 Y69.914 E380.99947
G1 X125.795 Y69.690 E381.07986
G1 X123.624 Y67.520 E381.32543
G1 X122.868 Y67.520 E381.38591
G1 X124.815 Y69.467 E381.60618
G1 X124.068 Y69.476 E381.66592
G1 X122.112 Y67.520 E381.88725
G1 X121.356 Y67.520 E381.94774
G1 X123.648 Y69.812 E382.20702
G1 X123.227 Y70.147 E382.25006
G1 X120.600 Y67.520 E382.54730
G1 X119.844 Y67.520 E382.60778
G1 X122.807 Y70.482 E382.94297
G1 X122.386 Y70.818 E382.98601
G1 X119.088 Y67.520 E383.35916
G1 X118.332 Y67.520 E383.41964
G1 X121.965 Y71.153 E383.83073
G1 X121.938 Y71.882 E383.88905
G1 X117.576 Y67.520 E384.38256
G1 X116.820 Y67.520 E384.44305
G1 X121.938 Y72.638 E385.02210
G1 X121.938 Y73.394 E385.08259
G1 X116.064 Y67.520 E385.74718
G1 X115.308 Y67.520 E385.80766
G1 X130.130 Y82.342 E387.48472
G1 X130.130 Y83.098 E387.54520
G1 X114.552 Y67.520 E389.30780
G1 X113.796 Y67.520 E389.36829
G1 X130.130 Y83.854 E391.21642
G1 X130.130 Y84.610 E391.27691
G1 X113.040 Y67.520 E393.21059
G1 X112.284 Y67.520 E393.27108
G1 X130.130 Y85.366 E395.29029
G1 X130.130 Y86.122 E395.35078
G1 X111.528 Y67.520 E397.45554
G1 X110.772 Y67.520 E397.51603
G1 X130.130 Y86.878 E399.70632
G1 X130.130 Y87.634 E399.76681
G1 X110.016 Y67.520 E402.04265
G1 X109.260 Y67.520 E402.10314
G1 X130.130 Y88.390 E404.46452
G1 X130.130 Y89.146 E404.52500
G1 X108.504 Y67.520 E406.97193
G1 X107.748 Y67.520 E407.03241
G1 X130.130 Y89.902 E409.56487
G1 X130.130 Y90.658 E409.62536
G1 X106.992 Y67.520 E412.24336
G1 X106.236 Y67.520 E412.30385
G1 X130.130 Y91.414 E415.00739
G1 X130.130 Y92.170 E415.06788
G1 X105.480 Y67.520 E417.85696
G1 X104.724 Y67.520 E417.91745
G1 X130.130 Y92.926 E420.79207
G1 X130.130 Y93.682 E420.85256
G1 X103.968 Y67.520 E423.81273
G1 X103.212 Y67.520 E423.87321
G1 X130.130 Y94.438 E426.91892
G1 X130.130 Y95.194 E426.97940
G1 X102.456 Y67.520 E430.11065
G1 X101.700 Y67.520 E430.17114
G1 X130.130 Y95.950 E433.38792
G1 X130.130 Y96.706 E433.44841
G1 X100.944 Y67.520 E436.75074
G1 X100.188 Y67.520 E436.81122
G1 X130.130 Y97.462 E440.19909
G1 X130.130 Y98.218 E440.25958
G1 X99.432 Y67.520 E443.73299
G1 X98.676 Y67.520 E443.79347
G1 X130.130 Y98.974 E447.35242
G1 X130.130 Y99.730 E447.41291
G1 X97.920 Y67.520 E451.05740
G1 X97.164 Y67.520 E451.11789
G1 X130.130 Y100.486 E454.84792
G1 X130.130 Y101.242 E454.90840
G1 X96.408 Y67.520 E458.72397
G1 X95.652 Y67.520 E458.78446
G1 X130.130 Y101.997 E462.68557
G1 X130.130 Y102.753 E462.74606
G1 X94.897 Y67.520 E466.73271
G1 X94.141 Y67.520 E466.79320
G1 X130.130 Y103.509 E470.86539
G1 X130.130 Y104.265 E470.92588
G1 X93.385 Y67.520 E475.08361
G1 X92.629 Y67.520 E475.14410
G1 X130.130 Y105.021 E479.38737
G1 X130.130 Y105.777 E479.44786
G1 X91.873 Y67.520 E483.77667
G1 X91.117 Y67.520 E483.83716
G1 X130.130 Y106.533 E488.25151
G1 X130.130 Y107.289 E488.31200
G1 X90.361 Y67.520 E492.81190
G1 X89.605 Y67.520 E492.87238
G1 X130.130 Y108.045 E497.45782
G1 X130.130 Y108.801 E497.51831
G1 X88.849 Y67.520 E502.18928
G1 X88.093 Y67.520 E502.24977
G1 X130.130 Y109.557 E507.00629
G1 X130.130 Y110.313 E507.06677
G1 X87.337 Y67.520 E511.90883
G1 X86.581 Y67.520 E511.96932
G1 X130.130 Y111.069 E516.89692
G1 X130.130 Y111.825 E516.95741
G1 X85.825 Y67.520 E521.97055
G1 X85.069 Y67.520 E522.03103
G1 X130.130 Y112.581 E527.12971
G1 X130.130 Y113.337 E527.19020
G1 X84.313 Y67.520 E532.37442
G1 X83.557 Y67.520 E532.43491
G1 X130.130 Y114.093 E537.70467
G1 X130.130 Y114.849 E537.76515
G1 X82.801 Y67.520 E543.12046
G1 X82.045 Y67.520 E543.18094
G1 X130.130 Y115.605 E548.62179
G1 X130.130 Y116.361 E548.68227
G1 X81.289 Y67.520 E554.20866
G1 X80.533 Y67.520 E554.26914
G1 X130.130 Y117.117 E559.88107
G1 X130.130 Y117.873 E559.94155
G1 X79.777 Y67.520 E565.63902
G1 X79.021 Y67.520 E565.69950
